svg/icons/src/icon-easy-to-use.svg

<?xml version="1.0" encoding="UTF-8"?>
<svg width="32px" height="32px" viewBox="0 0 32 32" version="1.1" xmlns="http://www.w3.org/2000/svg" xmlns:xlink="http://www.w3.org/1999/xlink">
    <!-- Generator: Sketch 52.5 (67469) - http://www.bohemiancoding.com/sketch -->
    <title>icon-easy-to-use</title>
    <desc>Created with Sketch.</desc>
    <g id="icon-easy-to-use" stroke="none" stroke-width="1" fill="none" fill-rule="evenodd">
        <path d="M23.1533333,22.6666667 L19.6666667,22.6666667 C19.5781525,22.6670229 19.4931607,22.6320183 19.4305712,22.5694288 C19.3679817,22.5068393 19.3329771,22.4218475 19.3333333,22.3333333 L19.3333333,13.8306667 C19.3333333,12.081765 17.9155683,10.6640001 16.1666667,10.6640001 C14.417765,10.6640001 13.0000001,12.081765 13,13.8306667 L13,25.2 C12.999288,25.3450765 12.905183,25.473173 12.7669541,25.5172239 C12.6287253,25.5612749 12.4778555,25.5112473 12.3933333,25.3933333 L11.0293333,23.4666667 C10.2214491,22.3435009 8.71856532,21.9714496 7.48,22.588 C6.31221362,23.2011325 5.73962204,24.5533639 6.112,25.8186667 C7.00601912,27.8166159 8.01068795,29.7631896 9.12133333,31.6493333 C9.23776408,31.8656212 9.46369856,32.0003622 9.70933333,32 L28.672,32 C29.0401898,32 29.3386667,31.7015232 29.3386667,31.3333333 L29.3386667,29.1266667 L29.3386667,29.108 C29.3552869,25.6426071 26.6165521,22.7905209 23.1533333,22.6666667 Z" id="Path" fill="#2333FF"></path>
        <path d="M7.33333333,14.6666667 C6.59695367,14.6666667 6,14.069713 6,13.3333333 L6,4 C6,3.26362033 6.59695367,2.66666667 7.33333333,2.66666667 L25.3333333,2.66666667 C26.069713,2.66666667 26.6666667,3.26362033 26.6666667,4 L26.6666667,13.3333333 C26.6666667,14.069713 26.069713,14.6666667 25.3333333,14.6666667 L21.6666667,14.6666667 C21.5781525,14.6663105 21.4931607,14.701315 21.4305712,14.7639045 C21.3679817,14.826494 21.3329771,14.9114858 21.3333333,15 L21.3333333,17 C21.3329771,17.0885142 21.3679817,17.173506 21.4305712,17.2360955 C21.4931607,17.298685 21.5781525,17.3336895 21.6666667,17.3333333 L25.3333333,17.3333333 C27.5424723,17.3333333 29.3333333,15.5424723 29.3333333,13.3333333 L29.3333333,4 C29.3333333,1.790861 27.5424723,1.3527075e-16 25.3333333,0 L7.33333333,0 C5.12419433,-1.3527075e-16 3.33333333,1.790861 3.33333333,4 L3.33333333,13.3333333 C3.33333333,15.5424723 5.12419433,17.3333333 7.33333333,17.3333333 L10.6666667,17.3333333 C10.8507616,17.3333333 11,17.1840949 11,17 L11,15 C11,14.8159051 10.8507616,14.6666667 10.6666667,14.6666667 L7.33333333,14.6666667 Z" id="Path" fill="#2333FF"></path>
    </g>
</svg>

<svg width="32" height="32" xmlns="http://www.w3.org/2000/svg"><g fill="#2333FF" fill-rule="evenodd"><path d="M23.153 22.667h-3.486a.332.332 0 0 1-.334-.334v-8.502a3.167 3.167 0 0 0-6.333 0V25.2a.335.335 0 0 1-.607.193l-1.364-1.926a2.823 2.823 0 0 0-3.549-.879 2.767 2.767 0 0 0-1.368 3.23 58.915 58.915 0 0 0 3.01 5.831.667.667 0 0 0 .587.351h18.963a.667.667 0 0 0 .667-.667v-2.225a6.415 6.415 0 0 0-6.186-6.441z"/><path d="M7.333 14.667A1.333 1.333 0 0 1 6 13.333V4c0-.736.597-1.333 1.333-1.333h18c.737 0 1.334.597 1.334 1.333v9.333c0 .737-.597 1.334-1.334 1.334h-3.666a.332.332 0 0 0-.334.333v2a.332.332 0 0 0 .334.333h3.666a4 4 0 0 0 4-4V4a4 4 0 0 0-4-4h-18a4 4 0 0 0-4 4v9.333a4 4 0 0 0 4 4h3.334c.184 0 .333-.149.333-.333v-2a.333.333 0 0 0-.333-.333H7.333z"/></g></svg>
